X: 4303
T: Bodmin Riding
R: barndance
M: 4/4
K: Dmajor
D2||G2 G2 G2 A2|GFGA GFGA|B2 B2 B2c2|BABc BABc|
d2 d2d2 ed|c2c2c2 dc|B2G2 dc Bc|A6 FG|
A3 A A3 B|AGFE D2 Bc|d3 d d3 e|dcBA G2dc|
BcAB G2 dc|BcAB G2 dc|Bdgd B2A2|G6||

